; generated by PrusaSlicer 2.4.2+linux-x64-GTK3 on 2022-09-01 at 09:59:27 UTC

; 

; external perimeters extrusion width = 0.45mm
; perimeters extrusion width = 0.45mm
; infill extrusion width = 0.45mm
; solid infill extrusion width = 0.45mm
; top infill extrusion width = 0.40mm
; first layer extrusion width = 0.42mm

M107
;TYPE:Custom
G90 ; use absolute coordinates
M83 ; extruder relative mode
M140 S60 ; set final bed temp
M109 S165 ; set temporary nozzle temp to prevent oozing during homing
M190 S60 ; wait for bed temp to stabilize
G28 ; home all axis
G1 Z50 F240
G1 X2 Y10 F3000
M104 S215 ; set final nozzle temp
M109 S215 ; wait for nozzle temp to stabilize
G1 Z0.28 F240
G92 E0
G1 Y140 E10 F1500 ; prime the nozzle
G1 X2.3 F5000
G92 E0
G1 Y10 E10 F1200 ; prime the nozzle
G92 E0
G21 ; set units to millimeters
G90 ; use absolute coordinates
M83 ; use relative distances for extrusion
; Filament gcode
M107
;LAYER_CHANGE
;Z:0.2
;HEIGHT:0.2
;BEFORE_LAYER_CHANGE
G92 E0
;0.2


G1 E-6 F3600
G1 Z.2 F9000
;AFTER_LAYER_CHANGE
;0.2
G1 X92.229 Y106.374
G1 E6 F2400
M204 S500
;TYPE:Skirt/Brim
;WIDTH:0.42
G1 F1200
G1 X93.669 Y105.889 E.04764
G1 X155 Y99.873 E1.93221
G1 X217 Y99.873 E1.94397
G1 X218.583 Y100.267 E.05115
G1 X219.797 Y101.357 E.05115
G1 X220.377 Y103.25 E.06207
G1 X220.377 Y196.75 E2.93163
G1 X219.983 Y198.333 E.05115
G1 X218.893 Y199.547 E.05115
G1 X217 Y200.127 E.06207
G1 X154.669 Y200.111 E1.95434
G1 X93.669 Y194.111 E1.92185
G1 X92.132 Y193.564 E.05115
G1 X91.087 Y192.46 E.04765
G1 X80.256 Y174.015 E.67066
G1 X79.849 Y173.127 E.03065
G1 X79.657 Y172.266 E.02764
G1 X79.623 Y128.25 E1.3801
G1 X79.79 Y127.065 E.03752
G1 X80.257 Y125.984 E.03691
G1 X91.088 Y107.54 E.67063
G1 X92.187 Y106.417 E.04927
G1 E-4.2 F3600
;WIPE_START
G1 F7200
G1 X93.669 Y105.889 E-.74729
G1 X95.686 Y105.691 E-.96271
;WIPE_END
G1 E-.09 F3600
G1 X148.893 Y156.842 F9000
G1 E6 F2400
;TYPE:Perimeter
G1 F1200
G1 X149.299 Y156.508 E.0165
G1 X149.776 Y156.252 E.01696
G1 X150.307 Y156.1 E.01732
G1 X150.8 Y156.052 E.01554
G1 X151.326 Y156.103 E.01657
G1 X151.833 Y156.257 E.01662
G1 X152.299 Y156.507 E.01657
G1 X152.708 Y156.842 E.01658
G1 X153.045 Y157.253 E.01666
G1 X153.292 Y157.717 E.01648
G1 X153.446 Y158.221 E.01655
G1 X153.498 Y158.75 E.01665
G1 X153.447 Y159.277 E.01662
G1 X153.292 Y159.784 E.01662
G1 X153.044 Y160.248 E.01647
G1 X152.708 Y160.658 E.01662
G1 X152.299 Y160.993 E.01658
G1 X151.833 Y161.243 E.01657
G1 X151.326 Y161.396 E.01662
G1 X150.8 Y161.448 E.01657
G1 X150.275 Y161.396 E.01655
G1 X149.767 Y161.243 E.01664
G1 X149.299 Y160.992 E.01664
G1 X148.893 Y160.658 E.0165
G1 X148.557 Y160.249 E.01658
G1 X148.307 Y159.782 E.01662
G1 X148.153 Y159.275 E.01661
G1 X148.102 Y158.75 E.01654
G1 X148.154 Y158.224 E.01657
G1 X148.307 Y157.719 E.01655
G1 X148.556 Y157.251 E.01662
G1 X148.854 Y156.888 E.01474
G1 X149.16 Y157.11 F9000
G1 F1200
G1 X149.51 Y156.822 E.01419
G1 X149.918 Y156.603 E.01453
G1 X150.378 Y156.472 E.01498
G1 X150.8 Y156.431 E.01331
G1 X151.252 Y156.475 E.01424
G1 X151.688 Y156.607 E.01428
G1 X152.088 Y156.822 E.01425
G1 X152.44 Y157.11 E.01425
G1 X152.729 Y157.463 E.01431
G1 X152.942 Y157.862 E.01418
G1 X153.075 Y158.296 E.01423
G1 X153.119 Y158.75 E.0143
G1 X153.075 Y159.203 E.01428
G1 X152.942 Y159.639 E.01429
G1 X152.729 Y160.037 E.01417
G1 X152.44 Y160.39 E.01428
G1 X152.088 Y160.678 E.01425
G1 X151.688 Y160.893 E.01425
G1 X151.252 Y161.025 E.01428
G1 X150.8 Y161.069 E.01424
G1 X150.349 Y161.025 E.01423
G1 X149.912 Y160.893 E.0143
G1 X149.51 Y160.677 E.0143
G1 X149.16 Y160.39 E.01419
G1 X148.871 Y160.039 E.01426
G1 X148.657 Y159.637 E.01427
G1 X148.525 Y159.201 E.01428
G1 X148.481 Y158.75 E.01423
G1 X148.525 Y158.298 E.01424
G1 X148.657 Y157.864 E.01422
G1 X148.871 Y157.462 E.01428
G1 X149.122 Y157.156 E.01241
G1 X149.457 Y157.354 F9000
G1 F1200
G1 X149.721 Y157.137 E.01072
G1 X150.061 Y156.955 E.0121
G1 X150.449 Y156.844 E.01264
G1 X150.8 Y156.809 E.01108
G1 X151.178 Y156.847 E.01192
G1 X151.543 Y156.957 E.01194
G1 X151.878 Y157.137 E.01193
G1 X152.172 Y157.378 E.01193
G1 X152.414 Y157.673 E.01196
G1 X152.592 Y158.007 E.01188
G1 X152.703 Y158.37 E.01191
G1 X152.741 Y158.75 E.01196
G1 X152.703 Y159.129 E.01194
G1 X152.592 Y159.494 E.01195
G1 X152.413 Y159.827 E.01186
G1 X152.172 Y160.122 E.01194
G1 X151.878 Y160.363 E.01193
G1 X151.543 Y160.543 E.01193
G1 X151.178 Y160.653 E.01194
G1 X150.8 Y160.69 E.01192
G1 X150.422 Y160.653 E.01191
G1 X150.057 Y160.543 E.01196
G1 X149.721 Y160.362 E.01196
G1 X149.428 Y160.122 E.01188
G1 X149.186 Y159.828 E.01194
G1 X149.007 Y159.492 E.01193
G1 X148.897 Y159.128 E.01195
G1 X148.86 Y158.75 E.01191
G1 X148.897 Y158.372 E.01192
G1 X149.007 Y158.008 E.0119
G1 X149.186 Y157.672 E.01194
G1 X149.413 Y157.396 E.01123
G1 X149.696 Y157.646 F9000
;TYPE:External perimeter
G1 F1200
G1 X149.932 Y157.452 E.00956
G1 X150.203 Y157.306 E.00967
G1 X150.519 Y157.216 E.0103
G1 X150.8 Y157.188 E.00885
G1 X151.105 Y157.218 E.00959
G1 X151.397 Y157.307 E.00959
G1 X151.667 Y157.452 E.00961
G1 X151.904 Y157.646 E.0096
G1 X152.098 Y157.883 E.00961
G1 X152.242 Y158.153 E.00958
G1 X152.332 Y158.445 E.00959
G1 X152.362 Y158.75 E.00961
G1 X152.332 Y159.055 E.0096
G1 X152.242 Y159.348 E.00962
G1 X152.098 Y159.617 E.00956
G1 X151.904 Y159.854 E.00961
G1 X151.667 Y160.048 E.0096
G1 X151.397 Y160.193 E.00961
G1 X151.105 Y160.281 E.00959
G1 X150.8 Y160.311 E.00959
G1 X150.496 Y160.281 E.00959
G1 X150.202 Y160.193 E.00962
G1 X149.932 Y160.048 E.00962
G1 X149.696 Y159.854 E.00956
G1 X149.501 Y159.617 E.00961
G1 X149.357 Y159.348 E.00959
G1 X149.268 Y159.054 E.00961
G1 X149.239 Y158.75 E.00959
G1 X149.268 Y158.445 E.00959
G1 X149.357 Y158.153 E.00958
G1 X149.501 Y157.883 E.00961
G1 X149.658 Y157.692 E.00774
G1 X149.617 Y157.351 F9000
G1 E-4.2 F3600
;WIPE_START
G1 F7200
G1 X149.932 Y157.452 E-.17293
G1 X150.203 Y157.306 E-.14652
G1 X150.519 Y157.216 E-.15602
G1 X150.8 Y157.188 E-.13402
G1 X151.105 Y157.218 E-.14532
G1 X151.397 Y157.307 E-.14534
G1 X151.667 Y157.452 E-.14552
G1 X151.904 Y157.646 E-.14541
G1 X152.098 Y157.883 E-.14565
G1 X152.242 Y158.153 E-.14507
G1 X152.332 Y158.445 E-.14522
G1 X152.349 Y158.619 E-.08298
;WIPE_END
G1 E-.09 F3600
G1 X153.051 Y156.871 F9000
G1 E6 F2400
;TYPE:Perimeter
G1 F1200
G1 X154.136 Y158.749 E.068
G1 X153.985 Y159.01 E.00943
G1 X154.153 Y159.301 E.01053
G1 X153.817 Y159.301 E.01052
G1 X152.468 Y161.639 E.08463
G1 X149.132 Y161.639 E.10459
G1 X147.464 Y158.75 E.10459
G1 X149.132 Y155.861 E.10458
G1 X152.468 Y155.861 E.10459
G1 X152.883 Y156.58 E.02603
G1 X153.219 Y156.58 E.01054
G1 X153.081 Y156.819 E.00867
G1 X153.486 Y156.871 F9000
G1 F1200
G1 X154.571 Y158.75 E.06801
G1 X154.421 Y159.01 E.00944
G1 X154.806 Y159.678 E.02417
G1 X154.035 Y159.678 E.02417
G1 X152.686 Y162.016 E.08463
G1 X148.914 Y162.016 E.11825
G1 X147.029 Y158.75 E.11824
G1 X148.914 Y155.484 E.11824
G1 X152.686 Y155.484 E.11824
G1 X153.101 Y156.203 E.02603
G1 X153.872 Y156.203 E.02419
G1 X153.516 Y156.819 E.02231
G1 X153.922 Y156.871 F9000
G1 F1200
G1 X157.89 Y149.997 E.24888
G1 X166.129 Y149.997 E.25832
G1 X170.248 Y157.131 E.2583
G1 X166.129 Y164.266 E.25832
G1 X157.89 Y164.266 E.25832
G1 X154.856 Y159.01 E.19028
G1 X155.007 Y158.75 E.00944
G1 X153.952 Y156.923 E.06613
G1 X154.357 Y156.871 F9000
;TYPE:External perimeter
G1 F1200
G1 X158.108 Y150.374 E.23523
G1 X165.911 Y150.374 E.24466
G1 X169.813 Y157.131 E.24464
G1 X165.911 Y163.889 E.24467
G1 X158.108 Y163.889 E.24466
G1 X155.292 Y159.01 E.17662
G1 X155.442 Y158.75 E.00944
G1 X154.387 Y156.923 E.06614
G1 X154.061 Y156.603 F9000
G1 E-4.2 F3600
;WIPE_START
G1 F7200
G1 X156.166 Y153.793 E-1.71
;WIPE_END
G1 E-.09 F3600
G1 X157.89 Y149.639 F9000
G1 E6 F2400
;TYPE:Perimeter
G1 F1200
G1 X153.771 Y142.505 E.2583
G1 X157.78 Y135.563 E.25133
G1 X166.241 Y135.563 E.26529
G1 X170.248 Y142.505 E.25132
G1 X166.129 Y149.639 E.2583
G1 X157.95 Y149.639 E.25643
G1 X158.108 Y149.262 F9000
;TYPE:External perimeter
G1 F1200
G1 X154.206 Y142.505 E.24464
G1 X157.997 Y135.94 E.23768
G1 X166.023 Y135.94 E.25164
G1 X169.813 Y142.505 E.23767
G1 X165.911 Y149.262 E.24464
G1 X158.168 Y149.262 E.24278
G1 X157.762 Y149.462 F9000
G1 E-4.2 F3600
;WIPE_START
G1 F7200
G1 X156.347 Y146.156 E-1.71
;WIPE_END
G1 E-.09 F3600
G1 X154.596 Y129.305 F9000
G1 E6 F2400
;TYPE:Perimeter
G1 F1200
G1 X153.771 Y127.878 E.05169
G1 X154.596 Y126.449 E.05171
G1 X155.687 Y126.742 E.03541
G1 X155.687 Y129.012 E.07118
G1 X154.654 Y129.289 E.03352
G1 X154.778 Y128.866 F9000
;TYPE:External perimeter
G1 F1200
G1 X154.206 Y127.878 E.03579
G1 X154.778 Y126.889 E.03581
G1 X155.31 Y127.031 E.01727
G1 X155.31 Y128.723 E.05304
G1 X154.836 Y128.85 E.01539
G1 X154.493 Y129.147 F9000
G1 E-4.2 F3600
;WIPE_START
G1 F7200
G1 X154.206 Y127.878 E-.55026
G1 X154.778 Y126.889 E-.54249
G1 X155.31 Y127.031 E-.26167
G1 X155.31 Y127.78 E-.35559
;WIPE_END
G1 E-.09 F3600
G1 X154.596 Y131.461 F9000
G1 E6 F2400
;TYPE:Perimeter
G1 F1200
G1 X155.687 Y131.754 E.03542
G1 X155.687 Y135.563 E.11944
G1 X157.366 Y135.563 E.05266
G1 X153.462 Y142.326 E.24484
G1 X145.223 Y142.326 E.25832
G1 X141.104 Y135.191 E.25832
G1 X145.223 Y128.056 E.25832
G1 X148.149 Y128.056 E.09172
G1 X146.593 Y130.75 E.09754
G1 X148.697 Y134.393 E.13189
G1 X152.903 Y134.393 E.1319
G1 X154.566 Y131.513 E.10425
G1 X154.778 Y131.9 F9000
;TYPE:External perimeter
G1 F1200
G1 X155.31 Y132.043 E.01728
G1 X155.31 Y135.94 E.12219
G1 X156.713 Y135.94 E.044
G1 X153.244 Y141.948 E.21753
G1 X145.441 Y141.948 E.24466
G1 X141.539 Y135.191 E.24467
G1 X145.441 Y128.433 E.24467
G1 X147.496 Y128.433 E.06442
G1 X146.158 Y130.75 E.08389
G1 X148.479 Y134.77 E.14554
G1 X153.121 Y134.77 E.14555
G1 X154.748 Y131.952 E.102
G1 X154.988 Y131.561 F9000
G1 E-4.2 F3600
;WIPE_START
G1 F7200
G1 X155.31 Y132.043 E-.27049
G1 X155.31 Y135.073 E-1.43951
;WIPE_END
G1 E-.09 F3600
G1 X153.462 Y142.683 F9000
G1 E6 F2400
;TYPE:Perimeter
G1 F1200
G1 X157.58 Y149.818 E.25831
G1 X154.112 Y155.826 E.21752
G1 X153.318 Y155.826 E.02488
G1 X152.903 Y155.107 E.02603
G1 X148.697 Y155.107 E.1319
G1 X147.631 Y156.953 E.06683
G1 X145.223 Y156.953 E.07549
G1 X141.104 Y149.818 E.25832
G1 X145.223 Y142.683 E.25832
G1 X153.402 Y142.683 E.25644
G1 X153.244 Y143.06 F9000
;TYPE:External perimeter
G1 F1200
G1 X157.145 Y149.818 E.24465
G1 X153.894 Y155.449 E.20387
G1 X153.536 Y155.449 E.01123
G1 X153.121 Y154.73 E.02603
G1 X148.479 Y154.73 E.14555
G1 X147.413 Y156.576 E.06683
G1 X145.441 Y156.576 E.06184
G1 X141.539 Y149.818 E.24467
G1 X145.441 Y143.06 E.24467
G1 X153.184 Y143.06 E.24278
G1 X153.591 Y142.86 F9000
G1 E-4.2 F3600
;WIPE_START
G1 F7200
G1 X155.005 Y146.166 E-1.71
;WIPE_END
G1 E-.09 F3600
G1 X146.593 Y158.75 F9000
G1 E6 F2400
;TYPE:Perimeter
G1 F1200
G1 X148.697 Y162.393 E.13189
G1 X152.903 Y162.393 E.1319
G1 X154.253 Y160.055 E.08463
G1 X155.046 Y160.055 E.02488
G1 X157.18 Y163.75 E.13378
G1 X156.783 Y164.437 E.02488
G1 X155.687 Y164.437 E.03437
G1 X155.687 Y167.725 E.10309
G1 X153.462 Y171.58 E.13956
G1 X145.223 Y171.58 E.25832
G1 X141.104 Y164.445 E.25832
G1 X145.223 Y157.31 E.25832
G1 X147.424 Y157.31 E.06901
G1 X146.623 Y158.698 E.05024
G1 X146.771 Y157.687 F9000
;TYPE:External perimeter
G1 F1200
G1 X146.158 Y158.75 E.03847
G1 X148.479 Y162.77 E.14554
G1 X153.121 Y162.77 E.14555
G1 X154.471 Y160.432 E.08463
G1 X154.828 Y160.432 E.01122
G1 X156.744 Y163.75 E.12013
G1 X156.565 Y164.06 E.01122
G1 X155.31 Y164.06 E.03937
G1 X155.31 Y167.624 E.11174
G1 X153.244 Y171.203 E.12956
G1 X145.441 Y171.203 E.24467
G1 X141.539 Y164.445 E.24467
G1 X145.441 Y157.687 E.24467
G1 X146.711 Y157.687 E.03983
G1 X147.171 Y157.705 F9000
G1 E-4.2 F3600
;WIPE_START
G1 F7200
G1 X146.158 Y158.75 E-.56908
G1 X147.359 Y160.83 E-1.14092
;WIPE_END
G1 E-.09 F3600
G1 X153.462 Y171.937 F9000
G1 E6 F2400
;TYPE:Perimeter
G1 F1200
G1 X155.687 Y175.792 E.13956
G1 X155.687 Y182.352 E.20568
G1 X153.462 Y186.207 E.13956
G1 X145.223 Y186.207 E.25832
G1 X141.104 Y179.072 E.25832
G1 X145.223 Y171.937 E.25832
G1 X153.402 Y171.937 E.25644
G1 X153.244 Y172.314 F9000
;TYPE:External perimeter
G1 F1200
G1 X155.31 Y175.893 E.12956
G1 X155.31 Y182.251 E.19934
G1 X153.244 Y185.83 E.12956
G1 X145.441 Y185.83 E.24467
G1 X141.539 Y179.072 E.24467
G1 X145.441 Y172.314 E.24467
G1 X153.184 Y172.314 E.24278
G1 X153.591 Y172.114 F9000
G1 X153.771 Y171.758
;TYPE:Perimeter
G1 F1200
G1 X154.596 Y170.331 E.05169
G1 X155.687 Y170.624 E.03541
G1 X155.687 Y172.894 E.07118
G1 X154.596 Y173.186 E.03541
G1 X153.801 Y171.81 E.04983
G1 X154.207 Y171.758 F9000
;TYPE:External perimeter
G1 F1200
G1 X154.778 Y170.77 E.0358
G1 X155.31 Y170.913 E.01727
G1 X155.31 Y172.604 E.05304
G1 X154.778 Y172.747 E.01727
G1 X154.237 Y171.81 E.03391
G1 X153.869 Y171.544 F9000
G1 E-4.2 F3600
;WIPE_START
G1 F7200
G1 X154.778 Y170.77 E-.55706
G1 X155.31 Y170.913 E-.2616
G1 X155.31 Y172.604 E-.80354
G1 X155.131 Y172.652 E-.08779
;WIPE_END
G1 E-.09 F3600
G1 X156.441 Y184.671 F9000
G1 E6 F2400
;TYPE:Perimeter
G1 F1200
G1 X155.383 Y184.388 E.03435
G1 X156.441 Y182.554 E.06637
G1 X156.441 Y175.59 E.21834
G1 X155.382 Y173.756 E.0664
G1 X156.441 Y173.472 E.03436
G1 X156.441 Y170.045 E.10746
G1 X155.382 Y169.761 E.03436
G1 X156.441 Y167.927 E.0664
G1 X156.441 Y165.191 E.08578
G1 X157.218 Y165.191 E.02438
G1 X157.386 Y164.901 E.01051
G1 X157.455 Y165.02 E.00432
G1 X165.237 Y165.02 E.24399
G1 X165.138 Y165.191 E.00619
G1 X167.559 Y165.191 E.07591
G1 X167.559 Y167.892 E.08469
G1 X168.617 Y169.726 E.06638
G1 X167.559 Y170.009 E.03435
G1 X167.559 Y173.507 E.10967
G1 X168.618 Y173.791 E.03437
G1 X167.559 Y175.625 E.06641
G1 X167.559 Y182.52 E.21618
G1 X168.617 Y184.353 E.06638
G1 X167.559 Y184.637 E.03435
G1 X167.559 Y188.134 E.10967
G1 X168.618 Y188.418 E.03437
G1 X167.559 Y190.252 E.06641
G1 X167.559 Y195.309 E.15855
G1 X156.441 Y195.309 E.3486
G1 X156.441 Y190.218 E.15963
G1 X155.382 Y188.383 E.0664
G1 X156.441 Y188.1 E.03436
G1 X156.441 Y184.731 E.10561
G1 X156.064 Y184.961 F9000
G1 F1200
G1 X154.811 Y184.625 E.04068
G1 X156.064 Y182.453 E.07861
G1 X156.064 Y175.691 E.21201
G1 X154.81 Y173.519 E.07864
G1 X156.064 Y173.183 E.04069
G1 X156.064 Y170.334 E.08932
G1 X154.81 Y169.998 E.04069
G1 X156.064 Y167.826 E.07863
G1 X156.064 Y164.814 E.09443
G1 X157.001 Y164.814 E.02937
G1 X157.386 Y164.147 E.02417
G1 X157.673 Y164.643 E.01797
G1 X165.89 Y164.643 E.25764
G1 X165.791 Y164.814 E.00619
G1 X167.936 Y164.814 E.06726
G1 X167.936 Y167.791 E.09335
G1 X169.19 Y169.963 E.07862
G1 X167.936 Y170.299 E.04069
G1 X167.936 Y173.218 E.09152
G1 X169.19 Y173.553 E.0407
G1 X167.936 Y175.726 E.07865
G1 X167.936 Y182.419 E.20985
G1 X169.19 Y184.59 E.07862
G1 X167.936 Y184.926 E.04069
G1 X167.936 Y187.845 E.09152
G1 X169.19 Y188.181 E.0407
G1 X167.936 Y190.353 E.07865
G1 X167.936 Y195.686 E.16721
G1 X156.064 Y195.686 E.37224
G1 X156.064 Y190.319 E.16829
G1 X154.81 Y188.146 E.07864
G1 X156.064 Y187.81 E.04069
G1 X156.064 Y185.021 E.08747
G1 E-4.2 F3600
;WIPE_START
G1 F7200
G1 X154.811 Y184.625 E-.62426
G1 X155.953 Y182.645 E-1.08574
;WIPE_END
G1 E-.09 F3600
G1 X169.404 Y170.296 F9000
G1 E6 F2400
G1 F1200
G1 X170.248 Y171.758 E.05294
G1 X169.404 Y173.221 E.05294
G1 X168.313 Y172.928 E.03542
G1 X168.313 Y170.588 E.07337
G1 X169.346 Y170.311 E.03354
G1 X169.222 Y170.735 F9000
;TYPE:External perimeter
G1 F1200
G1 X169.813 Y171.758 E.03704
G1 X169.222 Y172.781 E.03704
G1 X168.69 Y172.639 E.01728
G1 X168.69 Y170.878 E.05523
G1 X169.164 Y170.75 E.0154
G1 X169.506 Y170.453 F9000
G1 X170.558 Y171.937
;TYPE:Perimeter
G1 F1200
G1 X178.797 Y171.937 E.25832
G1 X182.915 Y179.072 E.2583
G1 X178.797 Y186.207 E.2583
G1 X170.558 Y186.207 E.25832
G1 X168.313 Y182.318 E.14082
G1 X168.313 Y175.827 E.20351
G1 X170.528 Y171.989 E.13893
G1 X170.776 Y172.314 F9000
;TYPE:External perimeter
G1 F1200
G1 X178.579 Y172.314 E.24467
G1 X182.48 Y179.072 E.24465
G1 X178.579 Y185.83 E.24465
G1 X170.776 Y185.83 E.24467
G1 X168.69 Y182.217 E.13082
G1 X168.69 Y175.928 E.19718
G1 X170.746 Y172.366 E.12894
G1 X170.804 Y171.915 F9000
G1 E-4.2 F3600
;WIPE_START
G1 F7200
G1 X174.346 Y172.342 E-1.71
;WIPE_END
G1 E-.09 F3600
G1 X169.404 Y184.923 F9000
G1 E6 F2400
